;FLAVOR:Marlin
;TIME:8156
;Filament used: 11.2656m
;Layer height: 0.3
;MINX:80.37
;MINY:66.504
;MINZ:0.2
;MAXX:169.63
;MAXY:143.733
;MAXZ:63.5
;Generated with Cura_SteamEngine 5.2.2
M82 ;absolute extrusion mode
G21 ; set units to millimeters
G90 ; use absolute positioning
M82 ; absolute extrusion mode
M104 S200 ; set extruder temp
M140 S60 ; set bed temp
M190 S60 ; wait for bed temp
M109 S200 ; wait for extruder temp
G28 W ; home all without mesh bed level
G80 ; mesh bed leveling
G92 E0.0 ; reset extruder distance position
G1 Y-3.0 F1000.0 ; go outside print area
G1 X60.0 E9.0 F1000.0 ; intro line
G1 X100.0 E21.5 F1000.0 ; intro line
G92 E0.0 ; reset extruder distance position
G92 E0
G92 E0
G1 F2100 E-0.8
;LAYER_COUNT:212
;LAYER:0
M107
G0 F3600 X94.467 Y71.113 Z0.2
;TYPE:SKIRT
G1 F2100 E0
G1 F1800 X94.95 Y70.489 E0.02625
G1 X95.493 Y69.916 E0.0525
G1 X96.092 Y69.401 E0.07878
G1 X96.74 Y68.95 E0.10503
G1 X97.05 Y68.778 E0.11683
G1 X97.168 Y68.653 E0.12254
G1 X97.767 Y68.138 E0.14882
G1 X98.415 Y67.687 E0.17508
G1 X99.106 Y67.303 E0.20137
G1 X99.831 Y66.991 E0.22762
G1 X100.584 Y66.754 E0.25388
G1 X101.358 Y66.595 E0.28016
G1 X102.24 Y66.504 E0.30965
G1 X105.545 Y66.504 E0.41957
G1 X106.334 Y66.544 E0.44585
G1 X107.114 Y66.663 E0.47209
G1 X107.879 Y66.861 E0.49837
G1 X108.619 Y67.135 E0.52462
G1 X109.328 Y67.483 E0.55089
G1 X109.999 Y67.901 E0.57718
G1 X110.623 Y68.384 E0.60343
G1 X111.006 Y68.747 E0.62098
G1 X111.674 Y69.163 E0.64715
G1 X112.298 Y69.646 E0.6734
G1 X112.871 Y70.189 E0.69965
G1 X113.386 Y70.788 E0.72593
G1 X113.837 Y71.436 E0.75219
G1 X114.221 Y72.127 E0.77848
G1 X114.533 Y72.852 E0.80473
G1 X114.77 Y73.605 E0.83099
G1 X114.929 Y74.379 E0.85727
G1 X115.02 Y75.261 E0.88676
G1 X115.019 Y91.286 E1.41975
G1 X134.98 Y91.286 E2.08366
G1 X134.98 Y75.567 E2.60648
G1 X135.02 Y74.778 E2.63275
G1 X135.139 Y73.998 E2.65899
G1 X135.337 Y73.233 E2.68528
G1 X135.611 Y72.493 E2.71152
G1 X135.959 Y71.784 E2.73779
G1 X136.377 Y71.113 E2.76408
G1 X136.86 Y70.489 E2.79033
G1 X137.403 Y69.916 E2.81659
G1 X138.002 Y69.401 E2.84286
G1 X138.65 Y68.95 E2.86912
G1 X138.96 Y68.778 E2.88091
G1 X139.078 Y68.653 E2.88663
G1 X139.677 Y68.138 E2.9129
G1 X140.325 Y67.687 E2.93916
G1 X141.016 Y67.303 E2.96545
G1 X141.741 Y66.991 E2.99171
G1 X142.494 Y66.754 E3.01796
G1 X143.268 Y66.595 E3.04424
G1 X144.15 Y66.504 E3.07373
G1 X147.455 Y66.504 E3.18366
G1 X148.244 Y66.544 E3.20993
G1 X149.024 Y66.663 E3.23618
G1 X149.789 Y66.861 E3.26246
G1 X150.529 Y67.135 E3.28871
G1 X151.238 Y67.483 E3.31497
G1 X151.909 Y67.901 E3.34127
G1 X152.533 Y68.384 E3.36751
G1 X152.916 Y68.747 E3.38506
G1 X153.584 Y69.163 E3.41124
G1 X154.208 Y69.646 E3.43748
G1 X154.781 Y70.189 E3.46374
G1 X155.296 Y70.788 E3.49001
G1 X155.747 Y71.436 E3.51627
G1 X156.131 Y72.127 E3.54257
G1 X156.443 Y72.852 E3.56882
G1 X156.68 Y73.605 E3.59507
G1 X156.839 Y74.379 E3.62135
G1 X156.93 Y75.261 E3.65085
G1 X156.929 Y91.286 E4.18384
G1 X161.83 Y91.286 E4.34685
G1 X162.619 Y91.326 E4.37312
G1 X163.399 Y91.445 E4.39937
G1 X164.164 Y91.643 E4.42565
G1 X164.904 Y91.917 E4.45189
G1 X165.613 Y92.265 E4.47816
G1 X166.284 Y92.683 E4.50446
G1 X166.908 Y93.166 E4.5307
G1 X167.481 Y93.709 E4.55696
G1 X167.996 Y94.308 E4.58323
G1 X168.447 Y94.956 E4.60949
G1 X168.831 Y95.647 E4.63578
G1 X169.143 Y96.372 E4.66204
G1 X169.38 Y97.125 E4.68829
G1 X169.539 Y97.899 E4.71457
G1 X169.63 Y98.781 E4.74406
G1 X169.63 Y110.913 E5.14758
G1 X169.59 Y111.702 E5.17385
G1 X169.471 Y112.482 E5.20009
G1 X169.273 Y113.247 E5.22638
G1 X168.999 Y113.987 E5.25262
G1 X168.651 Y114.696 E5.27889
G1 X168.233 Y115.367 E5.30518
G1 X167.75 Y115.991 E5.33143
G1 X167.207 Y116.564 E5.35769
G1 X166.608 Y117.079 E5.38396
G1 X165.96 Y117.53 E5.41022
G1 X165.269 Y117.914 E5.43651
G1 X164.544 Y118.226 E5.46276
G1 X163.791 Y118.463 E5.48902
G1 X163.017 Y118.622 E5.5153
G1 X162.135 Y118.713 E5.54479
G1 X156.93 Y118.713 E5.71791
G1 X156.93 Y134.433 E6.24076
G1 X156.89 Y135.222 E6.26704
G1 X156.771 Y136.002 E6.29328
G1 X156.573 Y136.767 E6.31956
G1 X156.299 Y137.507 E6.34581
G1 X155.951 Y138.216 E6.37208
G1 X155.533 Y138.887 E6.39837
G1 X155.05 Y139.511 E6.42462
G1 X154.507 Y140.084 E6.45087
G1 X153.908 Y140.599 E6.47715
G1 X153.444 Y140.922 E6.49595
G1 X153.375 Y141.011 E6.49969
G1 X152.832 Y141.584 E6.52595
G1 X152.233 Y142.099 E6.55222
G1 X151.585 Y142.55 E6.57848
G1 X150.894 Y142.934 E6.60478
G1 X150.169 Y143.246 E6.63103
G1 X149.416 Y143.483 E6.65728
G1 X148.642 Y143.642 E6.68356
G1 X147.76 Y143.733 E6.71306
G1 X144.455 Y143.733 E6.82298
G1 X143.666 Y143.693 E6.84926
G1 X142.886 Y143.574 E6.8755
G1 X142.121 Y143.376 E6.90178
G1 X141.381 Y143.102 E6.92803
G1 X140.672 Y142.754 E6.9543
G1 X140.001 Y142.336 E6.98059
G1 X139.377 Y141.853 E7.00684
G1 X138.804 Y141.31 E7.03309
G1 X138.48 Y140.933 E7.04963
G1 X138.326 Y140.837 E7.05566
G1 X137.702 Y140.354 E7.08191
G1 X137.129 Y139.811 E7.10816
G1 X136.614 Y139.212 E7.13444
G1 X136.163 Y138.564 E7.1607
G1 X135.779 Y137.873 E7.18699
G1 X135.467 Y137.148 E7.21324
G1 X135.23 Y136.395 E7.2395
G1 X135.071 Y135.621 E7.26578
G1 X134.98 Y134.739 E7.29527
G1 X134.981 Y118.714 E7.82826
G1 X115.02 Y118.714 E8.49217
G1 X115.02 Y134.433 E9.01498
G1 X114.98 Y135.222 E9.04126
G1 X114.861 Y136.002 E9.0675
G1 X114.663 Y136.767 E9.09378
G1 X114.389 Y137.507 E9.12003
G1 X114.041 Y138.216 E9.1463
G1 X113.623 Y138.887 E9.17259
G1 X113.14 Y139.511 E9.19884
G1 X112.597 Y140.084 E9.22509
G1 X111.998 Y140.599 E9.25137
G1 X111.534 Y140.922 E9.27017
G1 X111.465 Y141.011 E9.27392
G1 X110.922 Y141.584 E9.30017
G1 X110.323 Y142.099 E9.32645
G1 X109.675 Y142.55 E9.35271
G1 X108.984 Y142.934 E9.379
G1 X108.259 Y143.246 E9.40525
G1 X107.506 Y143.483 E9.43151
G1 X106.732 Y143.642 E9.45779
G1 X105.85 Y143.733 E9.48728
G1 X102.545 Y143.733 E9.5972
G1 X101.756 Y143.693 E9.62348
G1 X100.976 Y143.574 E9.64972
G1 X100.211 Y143.376 E9.67601
G1 X99.471 Y143.102 E9.70225
G1 X98.762 Y142.754 E9.72852
G1 X98.091 Y142.336 E9.75481
G1 X97.467 Y141.853 E9.78106
G1 X96.894 Y141.31 E9.80732
G1 X96.57 Y140.933 E9.82385
G1 X96.416 Y140.837 E9.82988
G1 X95.792 Y140.354 E9.85613
G1 X95.219 Y139.811 E9.88239
G1 X94.704 Y139.212 E9.90866
G1 X94.253 Y138.564 E9.93492
G1 X93.869 Y137.873 E9.96121
G1 X93.557 Y137.148 E9.98746
G1 X93.32 Y136.395 E10.01372
G1 X93.161 Y135.621 E10.04
G1 X93.07 Y134.739 E10.06949
G1 X93.071 Y118.714 E10.60249
G1 X88.17 Y118.714 E10.76549
G1 X87.381 Y118.674 E10.79177
G1 X86.601 Y118.555 E10.81801
G1 X85.836 Y118.357 E10.84429
G1 X85.096 Y118.083 E10.87054
G1 X84.387 Y117.735 E10.89681
G1 X83.716 Y117.317 E10.9231
G1 X83.092 Y116.834 E10.94935
G1 X82.519 Y116.291 E10.9756
G1 X82.004 Y115.692 E11.00188
G1 X81.553 Y115.044 E11.02814
G1 X81.169 Y114.353 E11.05443
G1 X80.857 Y113.628 E11.08068
G1 X80.62 Y112.875 E11.10694
G1 X80.461 Y112.101 E11.13322
G1 X80.37 Y111.219 E11.16271
G1 X80.37 Y99.087 E11.56622
G1 X80.41 Y98.298 E11.5925
G1 X80.529 Y97.518 E11.61874
G1 X80.727 Y96.753 E11.64502
G1 X81.001 Y96.013 E11.67127
G1 X81.349 Y95.304 E11.69754
G1 X81.767 Y94.633 E11.72383
G1 X82.25 Y94.009 E11.75008
G1 X82.793 Y93.436 E11.77633
G1 X83.392 Y92.921 E11.80261
G1 X84.04 Y92.47 E11.82887
G1 X84.731 Y92.086 E11.85516
G1 X85.456 Y91.774 E11.88141
G1 X86.209 Y91.537 E11.90767
G1 X86.983 Y91.378 E11.93395
G1 X87.865 Y91.287 E11.96344
G1 X93.07 Y91.287 E12.13656
G1 X93.07 Y75.567 E12.65941
G1 X93.11 Y74.778 E12.68568
G1 X93.229 Y73.998 E12.71193
G1 X93.427 Y73.233 E12.73821
G1 X93.701 Y72.493 E12.76445
G1 X94.049 Y71.784 E12.79072
G1 X94.467 Y71.113 E12.81702
G0 F3600 X94.864 Y71.244
G1 F1800 X95.345 Y70.644 E12.84259
G1 X95.886 Y70.097 E12.86818
G1 X96.481 Y69.609 E12.89378
G1 X97.123 Y69.186 E12.91935
G1 X97.308 Y69.09 E12.92628
G1 X97.561 Y68.834 E12.93825
G1 X98.156 Y68.346 E12.96385
G1 X98.798 Y67.923 E12.98942
G1 X99.481 Y67.568 E13.01502
G1 X100.196 Y67.287 E13.04057
G1 X100.938 Y67.081 E13.06618
G1 X101.696 Y66.953 E13.09175
G1 X102.545 Y66.904 E13.12004
G1 X105.545 Y66.904 E13.21982
G1 X106.313 Y66.944 E13.24539
G1 X107.073 Y67.063 E13.27098
G1 X107.816 Y67.261 E13.29655
G1 X108.535 Y67.535 E13.32215
G1 X109.221 Y67.882 E13.34772
G1 X109.868 Y68.298 E13.3733
G1 X110.468 Y68.779 E13.39888
G1 X110.775 Y69.083 E13.41325
G1 X110.896 Y69.144 E13.41775
G1 X111.543 Y69.56 E13.44334
G1 X112.143 Y70.041 E13.46891
G1 X112.69 Y70.582 E13.4945
G1 X113.178 Y71.177 E13.5201
G1 X113.601 Y71.819 E13.54567
G1 X113.956 Y72.502 E13.57127
G1 X114.237 Y73.217 E13.59682
G1 X114.443 Y73.959 E13.62243
G1 X114.571 Y74.717 E13.648
G1 X114.62 Y75.566 E13.67629
G1 X114.619 Y91.686 E14.21244
G1 X135.38 Y91.686 E14.90295
G1 X135.38 Y75.567 E15.43907
G1 X135.42 Y74.799 E15.46465
G1 X135.539 Y74.039 E15.49024
G1 X135.737 Y73.296 E15.51581
G1 X136.011 Y72.577 E15.5414
G1 X136.358 Y71.891 E15.56697
G1 X136.774 Y71.244 E15.59256
G1 X137.255 Y70.644 E15.61813
G1 X137.796 Y70.097 E15.64372
G1 X138.391 Y69.609 E15.66932
G1 X139.033 Y69.186 E15.69489
G1 X139.218 Y69.09 E15.70182
G1 X139.471 Y68.834 E15.71379
G1 X140.066 Y68.346 E15.73939
G1 X140.708 Y67.923 E15.76496
G1 X141.391 Y67.568 E15.79056
G1 X142.106 Y67.287 E15.81611
G1 X142.848 Y67.081 E15.84172
G1 X143.606 Y66.953 E15.86729
G1 X144.455 Y66.904 E15.89558
G1 X147.455 Y66.904 E15.99536
G1 X148.223 Y66.944 E16.02094
G1 X148.983 Y67.063 E16.04652
G1 X149.726 Y67.261 E16.0721
G1 X150.445 Y67.535 E16.09769
G1 X151.131 Y67.882 E16.12326
G1 X151.778 Y68.298 E16.14884
G1 X152.378 Y68.779 E16.17442
G1 X152.685 Y69.083 E16.18879
G1 X152.806 Y69.144 E16.1933
G1 X153.453 Y69.56 E16.21888
G1 X154.053 Y70.041 E16.24446
G1 X154.6 Y70.582 E16.27004
G1 X155.088 Y71.177 E16.29564
G1 X155.511 Y71.819 E16.32121
G1 X155.866 Y72.502 E16.34681
G1 X156.147 Y73.217 E16.37236
G1 X156.353 Y73.959 E16.39798
G1 X156.481 Y74.717 E16.42354
G1 X156.53 Y75.566 E16.45183
G1 X156.529 Y91.686 E16.98798
G1 X161.83 Y91.686 E17.16429
G1 X162.598 Y91.726 E17.18987
G1 X163.358 Y91.845 E17.21546
G1 X164.101 Y92.043 E17.24103
G1 X164.82 Y92.317 E17.26662
G1 X165.506 Y92.664 E17.29219
G1 X166.153 Y93.08 E17.31778
G1 X166.753 Y93.561 E17.34335
G1 X167.3 Y94.102 E17.36894
G1 X167.788 Y94.697 E17.39454
G1 X168.211 Y95.339 E17.42011
G1 X168.566 Y96.022 E17.44571
G1 X168.847 Y96.737 E17.47126
G1 X169.053 Y97.479 E17.49688
G1 X169.181 Y98.237 E17.52244
G1 X169.23 Y99.086 E17.55073
G1 X169.23 Y110.913 E17.9441
G1 X169.19 Y111.681 E17.96967
G1 X169.071 Y112.441 E17.99526
G1 X168.873 Y113.184 E18.02083
G1 X168.599 Y113.903 E18.04643
G1 X168.252 Y114.589 E18.072
G1 X167.836 Y115.236 E18.09758
G1 X167.355 Y115.836 E18.12316
G1 X166.814 Y116.383 E18.14874
G1 X166.219 Y116.871 E18.17434
G1 X165.577 Y117.294 E18.19991
G1 X164.894 Y117.649 E18.22551
G1 X164.179 Y117.93 E18.25106
G1 X163.437 Y118.136 E18.27668
G1 X162.679 Y118.264 E18.30224
G1 X161.83 Y118.313 E18.33053
G1 X156.53 Y118.313 E18.50681
G1 X156.53 Y134.433 E19.04296
G1 X156.49 Y135.201 E19.06854
G1 X156.371 Y135.961 E19.09413
G1 X156.173 Y136.704 E19.1197
G1 X155.899 Y137.423 E19.14529
G1 X155.552 Y138.109 E19.17086
G1 X155.136 Y138.756 E19.19644
G1 X154.655 Y139.356 E19.22202
G1 X154.114 Y139.903 E19.24761
G1 X153.519 Y140.391 E19.2732
G1 X153.167 Y140.623 E19.28723
G1 X152.98 Y140.856 E19.29716
G1 X152.439 Y141.403 E19.32275
G1 X151.844 Y141.891 E19.34835
G1 X151.202 Y142.314 E19.37392
G1 X150.519 Y142.669 E19.39952
G1 X149.804 Y142.95 E19.42507
G1 X149.062 Y143.156 E19.45068
G1 X148.304 Y143.284 E19.47625
G1 X147.455 Y143.333 E19.50454
G1 X144.455 Y143.333 E19.60432
G1 X143.687 Y143.293 E19.6299
G1 X142.927 Y143.174 E19.65548
G1 X142.184 Y142.976 E19.68106
G1 X141.465 Y142.702 E19.70665
G1 X140.779 Y142.355 E19.73222
G1 X140.132 Y141.939 E19.7578
G1 X139.532 Y141.458 E19.78338
G1 X138.985 Y140.917 E19.80897
G1 X138.746 Y140.626 E19.82149
G1 X138.457 Y140.44 E19.83292
G1 X137.857 Y139.959 E19.8585
G1 X137.31 Y139.418 E19.88409
G1 X136.822 Y138.823 E19.90968
G1 X136.399 Y138.181 E19.93525
G1 X136.044 Y137.498 E19.96085
G1 X135.763 Y136.783 E19.98641
G1 X135.557 Y136.041 E20.01202
G1 X135.429 Y135.283 E20.03759
G1 X135.38 Y134.434 E20.06587
G1 X135.381 Y118.314 E20.60203
G1 X114.62 Y118.314 E21.29254
G1 X114.62 Y134.433 E21.82866
G1 X114.58 Y135.201 E21.85424
G1 X114.461 Y135.961 E21.87982
G1 X114.263 Y136.704 E21.9054
G1 X113.989 Y137.423 E21.93099
G1 X113.642 Y138.109 E21.95656
G1 X113.226 Y138.756 E21.98214
G1 X112.745 Y139.356 E22.00772
G1 X112.204 Y139.903 E22.03331
G1 X111.609 Y140.391 E22.0589
G1 X111.257 Y140.623 E22.07292
G1 X111.07 Y140.856 E22.08286
G1 X110.529 Y141.403 E22.10845
G1 X109.934 Y141.891 E22.13404
G1 X109.292 Y142.314 E22.15962
G1 X108.609 Y142.669 E22.18522
G1 X107.894 Y142.95 E22.21077
G1 X107.152 Y143.156 E22.23638
G1 X106.394 Y143.284 E22.26195
G1 X105.545 Y143.333 E22.29023
G1 X102.545 Y143.333 E22.39001
G1 X101.777 Y143.293 E22.41559
G1 X101.017 Y143.174 E22.44118
G1 X100.274 Y142.976 E22.46675
G1 X99.555 Y142.702 E22.49235
G1 X98.869 Y142.355 E22.51791
G1 X98.222 Y141.939 E22.5435
G1 X97.622 Y141.458 E22.56908
G1 X97.075 Y140.917 E22.59466
G1 X96.836 Y140.626 E22.60719
G1 X96.547 Y140.44 E22.61862
G1 X95.947 Y139.959 E22.6442
G1 X95.4 Y139.418 E22.66978
G1 X94.912 Y138.823 E22.69538
G1 X94.489 Y138.181 E22.72095
G1 X94.134 Y137.498 E22.74655
G1 X93.853 Y136.783 E22.7721
G1 X93.647 Y136.041 E22.79772
G1 X93.519 Y135.283 E22.82328
G1 X93.47 Y134.434 E22.85157
G1 X93.471 Y118.314 E23.38772
G1 X88.17 Y118.314 E23.56403
G1 X87.402 Y118.274 E23.58961
G1 X86.642 Y118.155 E23.6152
G1 X85.899 Y117.957 E23.64077
G1 X85.18 Y117.683 E23.66637
G1 X84.494 Y117.336 E23.69193
G1 X83.847 Y116.92 E23.71752
G1 X83.247 Y116.439 E23.7431
G1 X82.7 Y115.898 E23.76868
G1 X82.212 Y115.303 E23.79428
G1 X81.789 Y114.661 E23.81985
G1 X81.434 Y113.978 E23.84545
G1 X81.153 Y113.263 E23.871
G1 X80.947 Y112.521 E23.89662
G1 X80.819 Y111.763 E23.92218
G1 X80.77 Y110.914 E23.95047
G1 X80.77 Y99.087 E24.34384
G1 X80.81 Y98.319 E24.36941
G1 X80.929 Y97.559 E24.395
G1 X81.127 Y96.816 E24.42058
G1 X81.401 Y96.097 E24.44617
G1 X81.748 Y95.411 E24.47174
G1 X82.164 Y94.764 E24.49732
G1 X82.645 Y94.164 E24.5229
G1 X83.186 Y93.617 E24.54849
G1 X83.781 Y93.129 E24.57408
G1 X84.423 Y92.706 E24.59965
G1 X85.106 Y92.351 E24.62525
G1 X85.821 Y92.07 E24.6508
G1 X86.563 Y91.864 E24.67642
G1 X87.321 Y91.736 E24.70199
G1 X88.17 Y91.687 E24.73027
G1 X93.47 Y91.687 E24.90655
G1 X93.47 Y75.567 E25.4427
G1 X93.51 Y74.799 E25.46828
G1 X93.629 Y74.039 E25.49387
G1 X93.827 Y73.296 E25.51944
G1 X94.101 Y72.577 E25.54503
G1 X94.448 Y71.891 E25.5706
G1 X94.864 Y71.244 E25.59619
G0 F3600 X95.262 Y71.378
G1 F1800 X95.741 Y70.804 E25.62105
G1 X96.278 Y70.283 E25.64594
G1 X96.868 Y69.824 E25.6708
G1 X97.504 Y69.429 E25.6957
G1 X97.558 Y69.403 E25.69769
G1 X97.953 Y69.02 E25.71599
G1 X98.543 Y68.561 E25.74086
G1 X99.179 Y68.166 E25.76576
G1 X99.853 Y67.842 E25.79063
G1 X100.558 Y67.592 E25.81551
G1 X101.286 Y67.418 E25.8404
G1 X102.028 Y67.323 E25.86528
G1 X102.545 Y67.304 E25.88249
G1 X105.545 Y67.304 E25.98227
G1 X106.292 Y67.344 E26.00715
G1 X107.03 Y67.463 E26.03202
G1 X107.752 Y67.661 E26.05692
G1 X108.448 Y67.934 E26.08178
G1 X109.111 Y68.281 E26.10667
G1 X109.734 Y68.696 E26.13157
G1 X110.308 Y69.175 E26.15643
G1 X110.54 Y69.414 E26.16751
G1 X110.786 Y69.543 E26.17675
G1 X111.409 Y69.958 E26.20165
G1 X111.983 Y70.437 E26.22651
G1 X112.504 Y70.974 E26.2514
G1 X112.963 Y71.564 E26.27626
G1 X113.358 Y72.2 E26.30116
G1 X113.682 Y72.874 E26.32604
G1 X113.932 Y73.579 E26.35092
G1 X114.106 Y74.307 E26.37581
G1 X114.201 Y75.049 E26.40069
G1 X114.22 Y75.566 E26.4179
G1 X114.219 Y92.086 E26.96736
G1 X135.78 Y92.086 E27.68448
G1 X135.78 Y75.567 E28.2339
G1 X135.82 Y74.82 E28.25878
G1 X135.939 Y74.082 E28.28365
G1 X136.137 Y73.36 E28.30855
G1 X136.41 Y72.664 E28.33341
G1 X136.757 Y72.001 E28.3583
G1 X137.172 Y71.378 E28.3832
G1 X137.651 Y70.804 E28.40806
G1 X138.188 Y70.283 E28.43295
G1 X138.778 Y69.824 E28.45781
G1 X139.414 Y69.429 E28.48271
G1 X139.468 Y69.403 E28.48471
G1 X139.863 Y69.02 E28.50301
G1 X140.453 Y68.561 E28.52787
G1 X141.089 Y68.166 E28.55277
G1 X141.763 Y67.842 E28.57764
